;Generated by Cura LulzBot Edition GCodeWriter Version: 3.6.20
;FLAVOR:Marlin
;TIME:18725
;Filament used: 4.95182m
;Layer height: 0.18
;Generated with Cura_SteamEngine 3.6.20
M82 ;absolute extrusion mode
;Basic settings: Layer height: 0.18 Walls: 1.0 Fill: {fill_density}
;Print time: 05:12:05
;Filament used: [4.95]m [32.85319578125]g
;Filament cost: [0]
;M190 S85.0 ;Uncomment to add your own bed temperature line
;M109 S240 ;Uncomment to add your own temperature line
G21                          ; metric values
G90                          ; absolute positioning
M82                          ; set extruder to absolute mode
M107                         ; start with the fan off
G92 E0                       ; set extruder position to 0
M140 S110                    ; get bed heating up
G28                          ; home all
M109 S150                    ; set to cleaning temp and wait
G1 Z150 E-30 F75             ; suck up XXmm of filament
M109 S170                    ; heat up rest of way
G1 X45 Y174 F11520           ; move behind scraper
G1 Z0  F1200                 ; CRITICAL: set Z to height of top of scraper
G1 X45 Y174 Z-.5 F4000       ; wiping ; plunge into wipe pad
G1 X55 Y172 Z-.5 F4000       ; wiping
G1 X45 Y174 Z0 F4000         ; wiping
G1 X55 Y172 F4000            ; wiping
G1 X45 Y174 F4000            ; wiping
G1 X55 Y172 F4000            ; wiping
G1 X45 Y174 F4000            ; wiping
G1 X55 Y172 F4000            ; wiping
G1 X60 Y174 F4000            ; wiping
G1 X80 Y172 F4000            ; wiping
G1 X60 Y174 F4000            ; wiping
G1 X80 Y172 F4000            ; wiping
G1 X60 Y174 F4000            ; wiping
G1 X90 Y172 F4000            ; wiping
G1 X80 Y174 F4000            ; wiping
G1 X100 Y172 F4000           ; wiping
G1 X80 Y174 F4000            ; wiping
G1 X100 Y172 F4000           ; wiping
G1 X80 Y174 F4000            ; wiping
G1 X100 Y172 F4000           ; wiping
G1 X110 Y174 F4000           ; wiping
G1 X100 Y172 F4000           ; wiping
G1 X110 Y174 F4000           ; wiping
G1 X100 Y172 F4000           ; wiping
G1 X110 Y174 F4000           ; wiping
G1 X115 Y172 Z-0.5 F1000     ; wipe slower and bury noz in cleanish area
G1 Z10                       ; raise z
G28 X0 Y0                    ; home x and y
M109 S170                 ; set to probing temp
M204 S300                    ; set accel for probing
G28 X0 Y0                    ; home x and y
G29                          ; Probe
M204 S2000                   ; set accel back to normal
G1 X5 Y15 Z10 F5000          ; get out the way
M400                         ; clear buffer
G4 S1                        ; pause
M109 S245    ; set extruder temp and wait
G4 S25                       ; wait for bed to temp up
G1 Z2 E0 F75                 ; extrude filament back into nozzle
M140 S85.0; get bed temping up during first layer
M221 S100 T0
G92 E0
G1 F600 E-1
;LAYER_COUNT:705
;LAYER:0
M107
G0 F2625 X42.87 Y52.167 Z0.425
;TYPE:SKIRT
G1 F600 E0
G1 F900 X43.324 Y51.801 E0.01943
G1 X43.823 Y51.501 E0.03882
G1 X44.359 Y51.271 E0.05825
G1 X44.921 Y51.117 E0.07766
G1 X45.759 Y51.034 E0.10571
G1 X109.241 Y51.035 E2.22032
G1 X109.822 Y51.075 E2.23972
G1 X110.393 Y51.194 E2.25915
G1 X110.942 Y51.39 E2.27856
G1 X111.459 Y51.659 E2.29798
G1 X111.934 Y51.997 E2.3174
G1 X112.358 Y52.396 E2.33679
G1 X112.724 Y52.85 E2.35622
G1 X113.024 Y53.349 E2.37561
G1 X113.254 Y53.885 E2.39504
G1 X113.408 Y54.447 E2.41445
G1 X113.491 Y55.285 E2.4425
G1 X113.491 Y99.716 E3.92251
G1 X113.451 Y100.297 E3.94191
G1 X113.332 Y100.868 E3.96134
G1 X113.136 Y101.417 E3.98076
G1 X112.867 Y101.933 E4.00014
G1 X112.529 Y102.409 E4.01959
G1 X112.13 Y102.833 E4.03898
G1 X111.676 Y103.199 E4.05841
G1 X111.177 Y103.499 E4.0778
G1 X110.641 Y103.729 E4.09723
G1 X110.079 Y103.883 E4.11664
G1 X109.241 Y103.966 E4.14469
G1 X45.759 Y103.966 E6.2593
G1 X45.178 Y103.926 E6.2787
G1 X44.607 Y103.807 E6.29813
G1 X44.058 Y103.611 E6.31755
G1 X43.542 Y103.342 E6.33693
G1 X43.066 Y103.004 E6.35638
G1 X42.642 Y102.605 E6.37577
G1 X42.276 Y102.151 E6.3952
G1 X41.976 Y101.652 E6.41459
G1 X41.746 Y101.116 E6.43402
G1 X41.592 Y100.554 E6.45343
G1 X41.509 Y99.716 E6.48148
G1 X41.509 Y55.284 E7.96153
G1 X41.549 Y54.703 E7.98092
G1 X41.668 Y54.132 E8.00035
G1 X41.864 Y53.583 E8.01977
G1 X42.133 Y53.067 E8.03916
G1 X42.471 Y52.591 E8.0586
G1 X42.87 Y52.167 E8.078
G0 F2625 X43.36 Y52.402
G1 F900 X43.805 Y52.083 E8.09623
G1 X44.292 Y51.833 E8.11447
G1 X44.81 Y51.656 E8.1327
G1 X45.348 Y51.557 E8.15092
G1 X45.759 Y51.534 E8.16464
G1 X109.241 Y51.535 E10.27925
G1 X109.787 Y51.575 E10.29748
G1 X110.321 Y51.694 E10.31571
G1 X110.832 Y51.889 E10.33392
G1 X111.31 Y52.157 E10.35218
G1 X111.743 Y52.492 E10.37041
G1 X112.123 Y52.886 E10.38865
G1 X112.442 Y53.331 E10.40689
G1 X112.692 Y53.818 E10.42512
G1 X112.869 Y54.336 E10.44336
G1 X112.968 Y54.874 E10.46158
G1 X112.991 Y55.285 E10.47529
G1 X112.991 Y99.716 E11.9553
G1 X112.951 Y100.262 E11.97354
G1 X112.832 Y100.796 E11.99176
G1 X112.637 Y101.307 E12.00998
G1 X112.369 Y101.785 E12.02824
G1 X112.034 Y102.218 E12.04647
G1 X111.64 Y102.598 E12.06471
G1 X111.195 Y102.917 E12.08294
G1 X110.708 Y103.167 E12.10118
G1 X110.19 Y103.344 E12.11941
G1 X109.652 Y103.443 E12.13763
G1 X109.241 Y103.466 E12.15135
G1 X45.759 Y103.466 E14.26595
G1 X45.213 Y103.426 E14.28419
G1 X44.679 Y103.307 E14.30242
G1 X44.168 Y103.112 E14.32063
G1 X43.69 Y102.844 E14.33889
G1 X43.257 Y102.509 E14.35712
G1 X42.877 Y102.115 E14.37536
G1 X42.558 Y101.67 E14.3936
G1 X42.308 Y101.183 E14.41183
G1 X42.131 Y100.665 E14.43007
G1 X42.032 Y100.127 E14.44829
G1 X42.009 Y99.716 E14.462
G1 X42.009 Y55.284 E15.94205
G1 X42.049 Y54.738 E15.96028
G1 X42.168 Y54.204 E15.97851
G1 X42.363 Y53.693 E15.99672
G1 X42.631 Y53.215 E16.01498
G1 X42.966 Y52.782 E16.03321
G1 X43.36 Y52.402 E16.05145
G0 F2625 X43.459 Y52.988
G1 F900 X43.846 Y52.656 E16.06843
G1 X44.281 Y52.39 E16.08542
G1 X44.751 Y52.194 E16.10238
G1 X45.246 Y52.075 E16.11934
G1 X45.759 Y52.034 E16.13648
G1 X109.241 Y52.035 E18.25109
G1 X109.749 Y52.075 E18.26806
G1 X110.244 Y52.194 E18.28502
G1 X110.715 Y52.389 E18.302
G1 X111.15 Y52.655 E18.31899
G1 X111.537 Y52.985 E18.33593
G1 X111.869 Y53.372 E18.35291
G1 X112.135 Y53.807 E18.3699
G1 X112.331 Y54.277 E18.38686
G1 X112.45 Y54.772 E18.40382
G1 X112.491 Y55.285 E18.42096
G1 X112.491 Y99.716 E19.90097
G1 X112.451 Y100.224 E19.91795
G1 X112.332 Y100.719 E19.93491
G1 X112.137 Y101.19 E19.95189
G1 X111.871 Y101.625 E19.96887
G1 X111.541 Y102.012 E19.98581
G1 X111.154 Y102.344 E20.0028
G1 X110.719 Y102.61 E20.01978
G1 X110.249 Y102.806 E20.03675
G1 X109.754 Y102.925 E20.0537
G1 X109.241 Y102.966 E20.07085
G1 X45.759 Y102.966 E22.18545
G1 X45.251 Y102.926 E22.20243
G1 X44.756 Y102.807 E22.21939
G1 X44.285 Y102.612 E22.23637
G1 X43.85 Y102.346 E22.25335
G1 X43.463 Y102.016 E22.27029
G1 X43.131 Y101.629 E22.28728
G1 X42.865 Y101.194 E22.30426
G1 X42.669 Y100.724 E22.32123
G1 X42.55 Y100.229 E22.33818
G1 X42.509 Y99.716 E22.35533
G1 X42.509 Y55.284 E23.83537
G1 X42.549 Y54.776 E23.85235
G1 X42.668 Y54.281 E23.8693
G1 X42.863 Y53.81 E23.88629
G1 X43.129 Y53.375 E23.90327
G1 X43.459 Y52.988 E23.92021
G1 F600 E22.92021
;MESH:
G0 F2625 X46.514 Y54.61
G0 X46.514 Y56.039
G0 X57.959 Y63.831
G0 X57.993 Y63.925
;TYPE:WALL-INNER
G1 F600 E23.92021
G1 F900 X57.311 Y64.243 E23.94528
G1 X56.696 Y64.675 E23.97031
G1 X56.166 Y65.205 E23.99528
G1 X55.734 Y65.82 E24.02031
G1 X55.416 Y66.502 E24.04538
G1 X55.223 Y67.228 E24.0704
G1 X55.157 Y67.975 E24.09538
G1 X55.223 Y68.722 E24.12036
G1 X55.416 Y69.448 E24.14539
G1 X55.734 Y70.13 E24.17045
G1 X56.166 Y70.745 E24.19549
G1 X56.696 Y71.275 E24.22045
G1 X57.311 Y71.707 E24.24549
G1 X57.993 Y72.025 E24.27055
G1 X58.719 Y72.218 E24.29558
G1 X59.433 Y72.281 E24.31945
G1 X95.567 Y72.281 E25.52309
G1 X96.281 Y72.218 E25.54697
G1 X97.007 Y72.025 E25.57199
G1 X97.689 Y71.707 E25.59706
G1 X98.304 Y71.275 E25.62209
G1 X98.834 Y70.745 E25.64706
G1 X99.266 Y70.13 E25.67209
G1 X99.584 Y69.448 E25.69716
G1 X99.777 Y68.722 E25.72218
G1 X99.843 Y67.975 E25.74716
G1 X99.777 Y67.228 E25.77214
G1 X99.584 Y66.502 E25.79716
G1 X99.266 Y65.82 E25.82223
G1 X98.834 Y65.205 E25.84727
G1 X98.304 Y64.675 E25.87223
G1 X97.689 Y64.243 E25.89727
G1 X97.007 Y63.925 E25.92233
G1 X96.281 Y63.732 E25.94736
G1 X95.567 Y63.669 E25.97123
G1 X59.433 Y63.669 E27.17487
G1 X58.719 Y63.732 E27.19875
G1 X57.993 Y63.925 E27.22377
G0 F2625 X57.959 Y63.831
G0 X56.671 Y64.645
G0 X56.136 Y65.18
G0 X55.7 Y65.8
G0 X55.379 Y66.489
G0 X55.184 Y67.222
G0 X55.117 Y67.975
G0 X55.184 Y68.728
G0 X55.379 Y69.461
G0 X55.7 Y70.15
G0 X56.136 Y70.77
G0 X56.671 Y71.305
G0 X57.172 Y71.657
G0 X108.43 Y98.905
G0 X108.5 Y98.975
G1 F900 X46.5 Y98.975 E29.28901
G1 X46.5 Y56.025 E30.71969
G1 X108.5 Y56.025 E32.78493
G1 X108.5 Y98.975 E34.21561
G0 F2625 X109 Y99.475
;TYPE:WALL-OUTER
G1 F900 X46 Y99.475 E36.31417
G1 X46 Y55.525 E37.77816
G1 X109 Y55.525 E39.87671
G1 X109 Y99.475 E41.3407
G0 F2625 X108.75 Y99.475
G0 X108.43 Y98.905
G0 X57.291 Y71.741
G0 X56.671 Y71.305
G0 X56.136 Y70.77
G0 X55.7 Y70.15
G0 X55.379 Y69.461
G0 X55.184 Y68.728
G0 X55.117 Y67.975
G0 X55.184 Y67.222
G0 X55.379 Y66.489
G0 X55.7 Y65.8
G0 X56.136 Y65.18
G0 X56.671 Y64.645
G0 X57.912 Y63.853
G0 X58.164 Y64.397
G1 F900 X57.562 Y64.678 E41.36283
G1 X57.019 Y65.059 E41.38492
G1 X56.55 Y65.528 E41.40702
G1 X56.169 Y66.071 E41.42911
G1 X55.888 Y66.673 E41.45124
G1 X55.717 Y67.315 E41.47338
G1 X55.659 Y67.975 E41.49544
G1 X55.717 Y68.635 E41.51751
G1 X55.888 Y69.277 E41.53965
G1 X56.169 Y69.879 E41.56177
G1 X56.55 Y70.422 E41.58387
G1 X57.019 Y70.891 E41.60596
G1 X57.562 Y71.272 E41.62806
G1 X58.164 Y71.553 E41.65019
G1 X58.806 Y71.724 E41.67232
G1 X59.455 Y71.781 E41.69402
G1 X95.545 Y71.781 E42.89619
G1 X96.194 Y71.724 E42.9179
G1 X96.836 Y71.553 E42.94003
G1 X97.438 Y71.272 E42.96216
G1 X97.981 Y70.891 E42.98425
G1 X98.45 Y70.422 E43.00635
G1 X98.831 Y69.879 E43.02844
G1 X99.112 Y69.277 E43.05057
G1 X99.283 Y68.635 E43.0727
G1 X99.341 Y67.975 E43.09477
G1 X99.283 Y67.315 E43.11684
G1 X99.112 Y66.673 E43.13897
G1 X98.831 Y66.071 E43.1611
G1 X98.45 Y65.528 E43.1832
G1 X97.981 Y65.059 E43.20529
G1 X97.438 Y64.678 E43.22739
G1 X96.836 Y64.397 E43.24952
G1 X96.194 Y64.226 E43.27165
G1 X95.545 Y64.169 E43.29335
G1 X59.455 Y64.169 E44.49552
G1 X58.806 Y64.226 E44.51722
G1 X58.164 Y64.397 E44.53935
G0 F2625 X57.938 Y64.502
G0 X57.686 Y63.958
G0 X57.825 Y63.462
;TYPE:SKIN
G1 F900 X57.064 Y63.817 E44.56732
G1 X56.38 Y64.299 E44.5952
G1 X55.79 Y64.889 E44.62299
G1 X55.308 Y65.573 E44.65086
G1 X54.953 Y66.334 E44.67884
G1 X54.739 Y67.143 E44.70671
G1 X54.665 Y67.975 E44.73453
G1 X54.739 Y68.807 E44.76236
G1 X54.953 Y69.616 E44.79023
G1 X55.308 Y70.377 E44.8182
G1 X55.79 Y71.061 E44.84608
G1 X56.38 Y71.651 E44.87387
G1 X57.064 Y72.133 E44.90174
G1 X57.825 Y72.488 E44.92972
G1 X58.634 Y72.702 E44.95759
G1 X59.411 Y72.771 E44.98358
G1 X95.589 Y72.771 E46.18868
G1 X96.366 Y72.702 E46.21466
G1 X97.175 Y72.488 E46.24254
G1 X97.936 Y72.133 E46.27051
G1 X98.62 Y71.651 E46.29838
G1 X99.21 Y71.061 E46.32617
G1 X99.692 Y70.377 E46.35405
G1 X100.047 Y69.616 E46.38202
G1 X100.261 Y68.807 E46.40989
G1 X100.335 Y67.975 E46.43772
G1 X100.261 Y67.143 E46.46554
G1 X100.047 Y66.334 E46.49342
G1 X99.692 Y65.573 E46.52139
G1 X99.21 Y64.889 E46.54926
G1 X98.62 Y64.299 E46.57706
G1 X97.936 Y63.817 E46.60493
G1 X97.175 Y63.462 E46.6329
G1 X96.366 Y63.248 E46.66077
G1 X95.589 Y63.179 E46.68676
G1 X59.411 Y63.179 E47.89186
G1 X58.634 Y63.248 E47.91784
G1 X57.825 Y63.462 E47.94572
G0 F2625 X46.99 Y56.515
G1 F900 X108.01 Y56.515 E49.97832
G1 X108.01 Y98.485 E51.37635
G1 X46.99 Y98.485 E53.40895
G1 X46.99 Y56.515 E54.80699
G0 F2625 X47.347 Y98.259
G1 F900 X47.214 Y98.126 E54.81325
G0 F2625 X47.214 Y97.419
G1 F900 X48.054 Y98.259 E54.85282
G0 F2625 X48.762 Y98.259
G1 F900 X47.214 Y96.712 E54.92572
G0 F2625 X47.214 Y96.005
G1 F900 X49.469 Y98.259 E55.03193
G0 F2625 X50.176 Y98.259
G1 F900 X47.214 Y95.298 E55.17144
G0 F2625 X47.214 Y94.591
G1 F900 X50.883 Y98.259 E55.34425
G0 F2625 X51.59 Y98.259
G1 F900 X47.214 Y93.883 E55.5504
G0 F2625 X47.214 Y93.176
G1 F900 X52.297 Y98.259 E55.78985
G0 F2625 X53.004 Y98.259
G1 F900 X47.214 Y92.469 E56.0626
G0 F2625 X47.214 Y91.762
G1 F900 X53.711 Y98.259 E56.36866
G0 F2625 X54.418 Y98.259
G1 F900 X47.214 Y91.055 E56.70803
G0 F2625 X47.214 Y90.348
G1 F900 X55.126 Y98.259 E57.08072
G0 F2625 X55.833 Y98.259
G1 F900 X47.214 Y89.641 E57.48672
G0 F2625 X47.214 Y88.934
G1 F900 X56.54 Y98.259 E57.92603
G0 F2625 X57.247 Y98.259
G1 F900 X47.214 Y88.227 E58.39864
G0 F2625 X47.214 Y87.52
G1 F900 X57.954 Y98.259 E58.90456
G0 F2625 X58.661 Y98.259
G1 F900 X47.214 Y86.812 E59.4438
G0 F2625 X47.214 Y86.105
G1 F900 X59.368 Y98.259 E60.01635
G0 F2625 X60.075 Y98.259
G1 F900 X47.214 Y85.398 E60.62221
G0 F2625 X47.214 Y84.691
G1 F900 X60.782 Y98.259 E61.26137
G0 F2625 X61.49 Y98.259
G1 F900 X47.214 Y83.984 E61.93386
G0 F2625 X47.214 Y83.277
G1 F900 X62.197 Y98.259 E62.63965
G0 F2625 X62.904 Y98.259
G1 F900 X47.214 Y82.57 E63.37875
G0 F2625 X47.214 Y81.863
G1 F900 X63.611 Y98.259 E64.15116
G0 F2625 X64.318 Y98.259
G1 F900 X47.214 Y81.156 E64.95687
G0 F2625 X47.214 Y80.448
G1 F900 X65.025 Y98.259 E65.79591
G0 F2625 X65.732 Y98.259
G1 F900 X47.214 Y79.741 E66.66826
G0 F2625 X47.214 Y79.034
G1 F900 X66.439 Y98.259 E67.57391
G0 F2625 X67.146 Y98.259
G1 F900 X47.214 Y78.327 E68.51286
G0 F2625 X47.214 Y77.62
G1 F900 X67.853 Y98.259 E69.48512
G0 F2625 X68.561 Y98.259
G1 F900 X47.214 Y76.913 E70.49071
G0 F2625 X47.214 Y76.206
G1 F900 X69.268 Y98.259 E71.52961
G0 F2625 X69.975 Y98.259
G1 F900 X47.214 Y75.499 E72.60181
G0 F2625 X47.214 Y74.792
G1 F900 X70.682 Y98.259 E73.70732
G0 F2625 X71.389 Y98.259
G1 F900 X47.214 Y74.084 E74.84615
G0 F2625 X47.214 Y73.377
G1 F900 X72.096 Y98.259 E76.01829
G0 F2625 X72.803 Y98.259
G1 F900 X47.214 Y72.67 E77.22374
G0 F2625 X47.214 Y71.963
G1 F900 X73.51 Y98.259 E78.46249
G0 F2625 X74.217 Y98.259
G1 F900 X47.214 Y71.256 E79.73454
G0 F2625 X47.214 Y70.549
G1 F900 X74.925 Y98.259 E81.03993
G0 F2625 X75.632 Y98.259
G1 F900 X47.214 Y69.842 E82.37862
G0 F2625 X47.214 Y69.135
G1 F900 X76.339 Y98.259 E83.75062
G0 F2625 X77.046 Y98.259
G1 F900 X47.214 Y68.428 E85.15592
G0 F2625 X47.214 Y67.721
G1 F900 X77.753 Y98.259 E86.59452
G0 F2625 X78.46 Y98.259
G1 F900 X47.214 Y67.013 E88.06646
G0 F2625 X47.214 Y66.306
G1 F900 X79.167 Y98.259 E89.5717
G0 F2625 X79.874 Y98.259
G1 F900 X47.214 Y65.599 E91.11025
G0 F2625 X47.214 Y64.892
G1 F900 X80.581 Y98.259 E92.6821
G0 F2625 X81.288 Y98.259
G1 F900 X47.214 Y64.185 E94.28725
G0 F2625 X47.214 Y63.478
G1 F900 X81.996 Y98.259 E95.92574
G0 F2625 X82.703 Y98.259
G1 F900 X56.345 Y71.902 E97.16739
G1 X56.257 Y71.814
G0 F2625 X55.538 Y71.094
G1 F900 X47.214 Y62.771 E97.55949
G0 F2625 X47.214 Y62.064
G1 F900 X54.703 Y69.553 E97.91228
G0 F2625 X54.498 Y68.64
G1 F900 X47.214 Y61.357 E98.25539
G0 F2625 X47.214 Y60.649
G1 F900 X54.447 Y67.882 E98.59612
G0 F2625 X54.505 Y67.233
G1 F900 X47.214 Y59.942 E98.93959
G0 F2625 X47.214 Y59.235
G1 F900 X54.635 Y66.656 E99.28918
G0 F2625 X54.805 Y66.119
G1 F900 X47.214 Y58.528 E99.64677
G0 F2625 X47.214 Y57.821
G1 F900 X55.03 Y65.637 E100.01497
G0 F2625 X55.297 Y65.196
G1 F900 X47.214 Y57.114 E100.39572
G0 F2625 X47.547 Y56.739
G1 F900 X55.589 Y64.782 E100.77459
G0 F2625 X55.937 Y64.423
G1 F900 X48.254 Y56.739 E101.13654
G0 F2625 X48.961 Y56.739
G1 F900 X56.3 Y64.078 E101.48226
G0 F2625 X56.714 Y63.785
G1 F900 X49.668 Y56.739 E101.81419
G0 F2625 X50.375 Y56.739
G1 F900 X57.159 Y63.523 E102.13377
G0 F2625 X57.641 Y63.298
G1 F900 X51.082 Y56.739 E102.44275
G0 F2625 X51.789 Y56.739
G1 F900 X58.183 Y63.133 E102.74396
G0 F2625 X58.766 Y63.009
G1 F900 X52.497 Y56.739 E103.0393
G0 F2625 X53.204 Y56.739
G1 F900 X59.417 Y62.953 E103.33201
G0 F2625 X60.124 Y62.953
G1 F900 X53.911 Y56.739 E103.62471
G0 F2625 X54.618 Y56.739
G1 F900 X60.831 Y62.953 E103.91742
G0 F2625 X61.538 Y62.953
G1 F900 X55.325 Y56.739 E104.21012
G0 F2625 X56.032 Y56.739
G1 F900 X62.245 Y62.953 E104.50283
G0 F2625 X62.953 Y62.953
G1 F900 X56.739 Y56.739 E104.79556
