;Generated by Cura LulzBot Edition GCodeWriter Version: 3.6.20
;FLAVOR:Marlin
;TIME:4098
;Filament used: 1.13489m
;Layer height: 0.18
;Generated with Cura_SteamEngine 3.6.20
M82 ;absolute extrusion mode
;Basic settings: Layer height: 0.18 Walls: 1.0 Fill: {fill_density}
;Print time: 01:08:18
;Filament used: [1.13]m [7.529496914062499]g
;Filament cost: [0]
;M190 S85.0 ;Uncomment to add your own bed temperature line
;M109 S240 ;Uncomment to add your own temperature line
G21                          ; metric values
G90                          ; absolute positioning
M82                          ; set extruder to absolute mode
M107                         ; start with the fan off
G92 E0                       ; set extruder position to 0
M140 S110                    ; get bed heating up
G28                          ; home all
M109 S150                    ; set to cleaning temp and wait
G1 Z150 E-30 F75             ; suck up XXmm of filament
M109 S170                    ; heat up rest of way
G1 X45 Y174 F11520           ; move behind scraper
G1 Z0  F1200                 ; CRITICAL: set Z to height of top of scraper
G1 X45 Y174 Z-.5 F4000       ; wiping ; plunge into wipe pad
G1 X55 Y172 Z-.5 F4000       ; wiping
G1 X45 Y174 Z0 F4000         ; wiping
G1 X55 Y172 F4000            ; wiping
G1 X45 Y174 F4000            ; wiping
G1 X55 Y172 F4000            ; wiping
G1 X45 Y174 F4000            ; wiping
G1 X55 Y172 F4000            ; wiping
G1 X60 Y174 F4000            ; wiping
G1 X80 Y172 F4000            ; wiping
G1 X60 Y174 F4000            ; wiping
G1 X80 Y172 F4000            ; wiping
G1 X60 Y174 F4000            ; wiping
G1 X90 Y172 F4000            ; wiping
G1 X80 Y174 F4000            ; wiping
G1 X100 Y172 F4000           ; wiping
G1 X80 Y174 F4000            ; wiping
G1 X100 Y172 F4000           ; wiping
G1 X80 Y174 F4000            ; wiping
G1 X100 Y172 F4000           ; wiping
G1 X110 Y174 F4000           ; wiping
G1 X100 Y172 F4000           ; wiping
G1 X110 Y174 F4000           ; wiping
G1 X100 Y172 F4000           ; wiping
G1 X110 Y174 F4000           ; wiping
G1 X115 Y172 Z-0.5 F1000     ; wipe slower and bury noz in cleanish area
G1 Z10                       ; raise z
G28 X0 Y0                    ; home x and y
M109 S170                 ; set to probing temp
M204 S300                    ; set accel for probing
G28 X0 Y0                    ; home x and y
G29                          ; Probe
M204 S2000                   ; set accel back to normal
G1 X5 Y15 Z10 F5000          ; get out the way
M400                         ; clear buffer
G4 S1                        ; pause
M109 S245    ; set extruder temp and wait
G4 S25                       ; wait for bed to temp up
G1 Z2 E0 F75                 ; extrude filament back into nozzle
M140 S85.0; get bed temping up during first layer
M221 S100 T0
G92 E0
G1 F600 E-1
;LAYER_COUNT:105
;LAYER:0
M107
G0 F2625 X49.22 Y55.342 Z0.425
;TYPE:SKIRT
G1 F600 E0
G1 F900 X49.674 Y54.976 E0.01943
G1 X50.173 Y54.676 E0.03882
G1 X50.709 Y54.446 E0.05825
G1 X51.271 Y54.292 E0.07766
G1 X52.109 Y54.209 E0.10571
G1 X102.891 Y54.21 E1.79728
G1 X103.472 Y54.25 E1.81668
G1 X104.043 Y54.369 E1.8361
G1 X104.592 Y54.565 E1.85552
G1 X105.109 Y54.834 E1.87494
G1 X105.584 Y55.172 E1.89435
G1 X106.008 Y55.571 E1.91375
G1 X106.374 Y56.025 E1.93317
G1 X106.674 Y56.524 E1.95257
G1 X106.904 Y57.06 E1.972
G1 X107.058 Y57.622 E1.99141
G1 X107.141 Y58.46 E2.01946
G1 X107.141 Y96.541 E3.28795
G1 X107.101 Y97.122 E3.30735
G1 X106.982 Y97.693 E3.32678
G1 X106.786 Y98.242 E3.3462
G1 X106.517 Y98.758 E3.36558
G1 X106.179 Y99.234 E3.38503
G1 X105.78 Y99.658 E3.40442
G1 X105.326 Y100.024 E3.42385
G1 X104.827 Y100.324 E3.44324
G1 X104.291 Y100.554 E3.46267
G1 X103.729 Y100.708 E3.48208
G1 X102.891 Y100.791 E3.51013
G1 X52.109 Y100.791 E5.2017
G1 X51.528 Y100.751 E5.2211
G1 X50.957 Y100.632 E5.24052
G1 X50.408 Y100.436 E5.25994
G1 X49.892 Y100.167 E5.27933
G1 X49.416 Y99.829 E5.29877
G1 X48.992 Y99.43 E5.31817
G1 X48.626 Y98.976 E5.33759
G1 X48.326 Y98.477 E5.35699
G1 X48.096 Y97.941 E5.37641
G1 X47.942 Y97.379 E5.39583
G1 X47.859 Y96.541 E5.42388
G1 X47.859 Y58.459 E6.6924
G1 X47.899 Y57.878 E6.7118
G1 X48.018 Y57.307 E6.73123
G1 X48.214 Y56.758 E6.75065
G1 X48.483 Y56.242 E6.77003
G1 X48.821 Y55.766 E6.78948
G1 X49.22 Y55.342 E6.80887
G0 F2625 X49.71 Y55.577
G1 F900 X50.155 Y55.258 E6.82711
G1 X50.642 Y55.008 E6.84534
G1 X51.16 Y54.831 E6.86358
G1 X51.698 Y54.732 E6.8818
G1 X52.109 Y54.709 E6.89551
G1 X102.891 Y54.71 E8.58708
G1 X103.437 Y54.75 E8.60531
G1 X103.971 Y54.869 E8.62354
G1 X104.482 Y55.064 E8.64176
G1 X104.96 Y55.332 E8.66001
G1 X105.393 Y55.667 E8.67825
G1 X105.773 Y56.061 E8.69648
G1 X106.092 Y56.506 E8.71472
G1 X106.342 Y56.993 E8.73296
G1 X106.519 Y57.511 E8.75119
G1 X106.618 Y58.049 E8.76941
G1 X106.641 Y58.46 E8.78312
G1 X106.641 Y96.541 E10.05161
G1 X106.601 Y97.087 E10.06985
G1 X106.482 Y97.621 E10.08808
G1 X106.287 Y98.132 E10.10629
G1 X106.019 Y98.61 E10.12455
G1 X105.684 Y99.043 E10.14278
G1 X105.29 Y99.423 E10.16102
G1 X104.845 Y99.742 E10.17926
G1 X104.358 Y99.992 E10.19749
G1 X103.84 Y100.169 E10.21573
G1 X103.302 Y100.268 E10.23395
G1 X102.891 Y100.291 E10.24766
G1 X52.109 Y100.291 E11.93923
G1 X51.563 Y100.251 E11.95746
G1 X51.029 Y100.132 E11.97569
G1 X50.518 Y99.937 E11.99391
G1 X50.04 Y99.669 E12.01216
G1 X49.607 Y99.334 E12.0304
G1 X49.227 Y98.94 E12.04863
G1 X48.908 Y98.495 E12.06687
G1 X48.658 Y98.008 E12.0851
G1 X48.481 Y97.49 E12.10334
G1 X48.382 Y96.952 E12.12156
G1 X48.359 Y96.541 E12.13527
G1 X48.359 Y58.459 E13.4038
G1 X48.399 Y57.913 E13.42203
G1 X48.518 Y57.379 E13.44026
G1 X48.713 Y56.868 E13.45847
G1 X48.981 Y56.39 E13.47673
G1 X49.316 Y55.957 E13.49497
G1 X49.71 Y55.577 E13.5132
G0 F2625 X49.809 Y56.163
G1 F900 X50.196 Y55.831 E13.53018
G1 X50.631 Y55.565 E13.54717
G1 X51.101 Y55.369 E13.56413
G1 X51.596 Y55.25 E13.58109
G1 X52.109 Y55.209 E13.59823
G1 X102.891 Y55.21 E15.2898
G1 X103.399 Y55.25 E15.30677
G1 X103.894 Y55.369 E15.32373
G1 X104.365 Y55.564 E15.34071
G1 X104.8 Y55.83 E15.3577
G1 X105.187 Y56.16 E15.37464
G1 X105.519 Y56.547 E15.39162
G1 X105.785 Y56.982 E15.40861
G1 X105.981 Y57.452 E15.42557
G1 X106.1 Y57.947 E15.44253
G1 X106.141 Y58.46 E15.45967
G1 X106.141 Y96.541 E16.72816
G1 X106.101 Y97.049 E16.74514
G1 X105.982 Y97.544 E16.76209
G1 X105.787 Y98.015 E16.77908
G1 X105.521 Y98.45 E16.79606
G1 X105.191 Y98.837 E16.813
G1 X104.804 Y99.169 E16.82999
G1 X104.369 Y99.435 E16.84697
G1 X103.899 Y99.631 E16.86393
G1 X103.404 Y99.75 E16.88089
G1 X102.891 Y99.791 E16.89803
G1 X52.109 Y99.791 E18.5896
G1 X51.601 Y99.751 E18.60658
G1 X51.106 Y99.632 E18.62353
G1 X50.635 Y99.437 E18.64051
G1 X50.2 Y99.171 E18.6575
G1 X49.813 Y98.841 E18.67444
G1 X49.481 Y98.454 E18.69142
G1 X49.215 Y98.019 E18.70841
G1 X49.019 Y97.549 E18.72537
G1 X48.9 Y97.054 E18.74233
G1 X48.859 Y96.541 E18.75947
G1 X48.859 Y58.459 E20.028
G1 X48.899 Y57.951 E20.04497
G1 X49.018 Y57.456 E20.06193
G1 X49.213 Y56.985 E20.07891
G1 X49.479 Y56.55 E20.0959
G1 X49.809 Y56.163 E20.11284
G1 F600 E19.11284
;MESH:
G0 F2625 X52.864 Y57.785
G0 X52.864 Y59.214
G0 X102.08 Y95.73
G0 X102.15 Y95.8
;TYPE:WALL-INNER
G1 F600 E20.11284
G1 F900 X52.85 Y95.8 E21.75504
G1 X52.85 Y59.2 E22.9742
G1 X102.15 Y59.2 E24.6164
G1 X102.15 Y95.8 E25.83556
G0 F2625 X102.65 Y96.3
;TYPE:WALL-OUTER
G1 F900 X52.35 Y96.3 E27.51107
G1 X52.35 Y58.7 E28.76354
G1 X102.65 Y58.7 E30.43905
G1 X102.65 Y96.3 E31.69152
G0 F2625 X102.4 Y96.3
G0 X102.08 Y95.73
G0 X101.66 Y95.31
;TYPE:SKIN
G1 F900 X53.34 Y95.31 E33.30108
G1 X53.34 Y59.69 E34.48759
G1 X101.66 Y59.69 E36.09715
G1 X101.66 Y95.31 E37.28366
G0 F2625 X101.434 Y60.422
G1 F900 X100.926 Y59.914 E37.30759
G0 F2625 X100.219 Y59.914
G1 F900 X101.434 Y61.129 E37.36483
G0 F2625 X101.434 Y61.836
G1 F900 X99.512 Y59.914 E37.45537
G0 F2625 X98.805 Y59.914
G1 F900 X101.434 Y62.543 E37.57922
G0 F2625 X101.434 Y63.25
G1 F900 X98.098 Y59.914 E37.73637
G0 F2625 X97.391 Y59.914
G1 F900 X101.434 Y63.957 E37.92683
G0 F2625 X101.434 Y64.664
G1 F900 X96.684 Y59.914 E38.15059
G0 F2625 X95.977 Y59.914
G1 F900 X101.434 Y65.372 E38.40768
G0 F2625 X101.434 Y66.079
G1 F900 X95.269 Y59.914 E38.6981
G0 F2625 X94.562 Y59.914
G1 F900 X101.434 Y66.786 E39.02183
G0 F2625 X101.434 Y67.493
G1 F900 X93.855 Y59.914 E39.37886
G0 F2625 X93.148 Y59.914
G1 F900 X101.434 Y68.2 E39.7692
G0 F2625 X101.434 Y68.907
G1 F900 X92.441 Y59.914 E40.19284
G0 F2625 X91.734 Y59.914
G1 F900 X101.434 Y69.614 E40.64978
G0 F2625 X101.434 Y70.321
G1 F900 X91.027 Y59.914 E41.14004
G0 F2625 X90.32 Y59.914
G1 F900 X101.434 Y71.028 E41.6636
G0 F2625 X101.434 Y71.735
G1 F900 X89.613 Y59.914 E42.22046
G0 F2625 X88.905 Y59.914
G1 F900 X101.434 Y72.443 E42.81067
G0 F2625 X101.434 Y73.15
G1 F900 X88.198 Y59.914 E43.4342
G0 F2625 X87.491 Y59.914
G1 F900 X101.434 Y73.857 E44.09102
G0 F2625 X101.434 Y74.564
G1 F900 X86.784 Y59.914 E44.78115
G0 F2625 X86.077 Y59.914
G1 F900 X101.434 Y75.271 E45.50459
G0 F2625 X101.434 Y75.978
G1 F900 X85.37 Y59.914 E46.26133
G0 F2625 X84.663 Y59.914
G1 F900 X101.434 Y76.685 E47.05138
G0 F2625 X101.434 Y77.392
G1 F900 X83.956 Y59.914 E47.87473
G0 F2625 X83.249 Y59.914
G1 F900 X101.434 Y78.099 E48.73139
G0 F2625 X101.434 Y78.807
G1 F900 X82.541 Y59.914 E49.6214
G0 F2625 X81.834 Y59.914
G1 F900 X101.434 Y79.514 E50.54472
G0 F2625 X101.434 Y80.221
G1 F900 X81.127 Y59.914 E51.50134
G0 F2625 X80.42 Y59.914
G1 F900 X101.434 Y80.928 E52.49127
G0 F2625 X101.434 Y81.635
G1 F900 X79.713 Y59.914 E53.5145
G0 F2625 X79.006 Y59.914
G1 F900 X101.434 Y82.342 E54.57104
G0 F2625 X101.434 Y83.049
G1 F900 X78.299 Y59.914 E55.66088
G0 F2625 X77.592 Y59.914
G1 F900 X101.434 Y83.756 E56.78403
G0 F2625 X101.434 Y84.463
G1 F900 X76.885 Y59.914 E57.94048
G0 F2625 X76.178 Y59.914
G1 F900 X101.434 Y85.171 E59.13026
G0 F2625 X101.434 Y85.878
G1 F900 X75.47 Y59.914 E60.35337
G0 F2625 X74.763 Y59.914
G1 F900 X101.434 Y86.585 E61.60979
G0 F2625 X101.434 Y87.292
G1 F900 X74.056 Y59.914 E62.89951
G0 F2625 X73.349 Y59.914
G1 F900 X101.434 Y87.999 E64.22254
G0 F2625 X101.434 Y88.706
G1 F900 X72.642 Y59.914 E65.57887
G0 F2625 X71.935 Y59.914
G1 F900 X101.434 Y89.413 E66.96851
G0 F2625 X101.434 Y90.12
G1 F900 X71.228 Y59.914 E68.39145
G0 F2625 X70.521 Y59.914
G1 F900 X101.434 Y90.827 E69.8477
G0 F2625 X101.434 Y91.534
G1 F900 X69.814 Y59.914 E71.33725
G0 F2625 X69.106 Y59.914
G1 F900 X101.434 Y92.242 E72.86016
G0 F2625 X101.434 Y92.949
G1 F900 X68.399 Y59.914 E74.41637
G0 F2625 X67.692 Y59.914
G1 F900 X101.434 Y93.656 E76.00589
G0 F2625 X101.434 Y94.363
G1 F900 X66.985 Y59.914 E77.62871
G0 F2625 X66.278 Y59.914
G1 F900 X101.434 Y95.07 E79.28484
G0 F2625 X100.741 Y95.084
G1 F900 X65.571 Y59.914 E80.94163
G0 F2625 X64.864 Y59.914
G1 F900 X100.034 Y95.084 E82.59841
G0 F2625 X99.327 Y95.084
G1 F900 X64.157 Y59.914 E84.2552
G0 F2625 X63.45 Y59.914
G1 F900 X98.62 Y95.084 E85.91199
G0 F2625 X97.913 Y95.084
G1 F900 X62.742 Y59.914 E87.5688
G0 F2625 X62.035 Y59.914
G1 F900 X97.205 Y95.084 E89.22559
G0 F2625 X96.498 Y95.084
G1 F900 X61.328 Y59.914 E90.88237
G0 F2625 X60.621 Y59.914
G1 F900 X95.791 Y95.084 E92.53916
G0 F2625 X95.084 Y95.084
G1 F900 X59.914 Y59.914 E94.19595
G0 F2625 X59.207 Y59.914
G1 F900 X94.377 Y95.084 E95.85273
G0 F2625 X93.67 Y95.084
G1 F900 X58.5 Y59.914 E97.50952
G0 F2625 X57.793 Y59.914
G1 F900 X92.963 Y95.084 E99.16631
G0 F2625 X92.256 Y95.084
G1 F900 X57.086 Y59.914 E100.8231
G0 F2625 X56.379 Y59.914
G1 F900 X91.549 Y95.084 E102.47988
G0 F2625 X90.842 Y95.084
G1 F900 X55.671 Y59.914 E104.13669
G0 F2625 X54.964 Y59.914
G1 F900 X90.134 Y95.084 E105.79348
G0 F2625 X89.427 Y95.084
G1 F900 X54.257 Y59.914 E107.45027
G0 F2625 X53.564 Y59.928
G1 F900 X88.72 Y95.084 E109.10639
G0 F2625 X88.013 Y95.084
G1 F900 X53.564 Y60.635 E110.72922
G0 F2625 X53.564 Y61.342
G1 F900 X87.306 Y95.084 E112.31873
G0 F2625 X86.599 Y95.084
G1 F900 X53.564 Y62.05 E113.87492
G0 F2625 X53.564 Y62.757
G1 F900 X85.892 Y95.084 E115.3978
G0 F2625 X85.185 Y95.084
G1 F900 X53.564 Y63.464 E116.88738
G0 F2625 X53.564 Y64.171
G1 F900 X84.478 Y95.084 E118.34365
G0 F2625 X83.77 Y95.084
G1 F900 X53.564 Y64.878 E119.7666
G0 F2625 X53.564 Y65.585
G1 F900 X83.063 Y95.084 E121.15623
G0 F2625 X82.356 Y95.084
G1 F900 X53.564 Y66.292 E122.51257
G0 F2625 X53.564 Y66.999
G1 F900 X81.649 Y95.084 E123.83559
G0 F2625 X80.942 Y95.084
G1 F900 X53.564 Y67.706 E125.12532
G0 F2625 X53.564 Y68.413
G1 F900 X80.235 Y95.084 E126.38173
G0 F2625 X79.528 Y95.084
G1 F900 X53.564 Y69.121 E127.60482
G0 F2625 X53.564 Y69.828
G1 F900 X78.821 Y95.084 E128.7946
G0 F2625 X78.114 Y95.084
G1 F900 X53.564 Y70.535 E129.95108
G0 F2625 X53.564 Y71.242
G1 F900 X77.406 Y95.084 E131.07423
G0 F2625 X76.699 Y95.084
G1 F900 X53.564 Y71.949 E132.16407
G0 F2625 X53.564 Y72.656
G1 F900 X75.992 Y95.084 E133.22061
G0 F2625 X75.285 Y95.084
G1 F900 X53.564 Y73.363 E134.24384
G0 F2625 X53.564 Y74.07
G1 F900 X74.578 Y95.084 E135.23377
G0 F2625 X73.871 Y95.084
G1 F900 X53.564 Y74.777 E136.19039
G0 F2625 X53.564 Y75.485
G1 F900 X73.164 Y95.084 E137.11368
G0 F2625 X72.457 Y95.084
G1 F900 X53.564 Y76.192 E138.00367
G0 F2625 X53.564 Y76.899
G1 F900 X71.75 Y95.084 E138.86035
G0 F2625 X71.043 Y95.084
G1 F900 X53.564 Y77.606 E139.68373
G0 F2625 X53.564 Y78.313
G1 F900 X70.335 Y95.084 E140.47377
G0 F2625 X69.628 Y95.084
G1 F900 X53.564 Y79.02 E141.23052
G0 F2625 X53.564 Y79.727
G1 F900 X68.921 Y95.084 E141.95395
G0 F2625 X68.214 Y95.084
G1 F900 X53.564 Y80.434 E142.64408
G0 F2625 X53.564 Y81.141
G1 F900 X67.507 Y95.084 E143.30091
G0 F2625 X66.8 Y95.084
G1 F900 X53.564 Y81.849 E143.92441
G0 F2625 X53.564 Y82.556
G1 F900 X66.093 Y95.084 E144.5146
G0 F2625 X65.386 Y95.084
G1 F900 X53.564 Y83.263 E145.07149
G0 F2625 X53.564 Y83.97
G1 F900 X64.679 Y95.084 E145.59507
G0 F2625 X63.971 Y95.084
G1 F900 X53.564 Y84.677 E146.08532
G0 F2625 X53.564 Y85.384
G1 F900 X63.264 Y95.084 E146.54227
G0 F2625 X62.557 Y95.084
G1 F900 X53.564 Y86.091 E146.96591
G0 F2625 X53.564 Y86.798
G1 F900 X61.85 Y95.084 E147.35625
G0 F2625 X61.143 Y95.084
G1 F900 X53.564 Y87.505 E147.71328
G0 F2625 X53.564 Y88.212
G1 F900 X60.436 Y95.084 E148.037
G0 F2625 X59.729 Y95.084
G1 F900 X53.564 Y88.92 E148.3274
G0 F2625 X53.564 Y89.627
G1 F900 X59.022 Y95.084 E148.58449
G0 F2625 X58.315 Y95.084
G1 F900 X53.564 Y90.334 E148.80828
G0 F2625 X53.564 Y91.041
G1 F900 X57.607 Y95.084 E148.99874
G0 F2625 X56.9 Y95.084
M104 S240
G1 F900 X53.564 Y91.748 E149.15589
G0 F2625 X53.564 Y92.455
G1 F900 X56.193 Y95.084 E149.27974
G0 F2625 X55.486 Y95.084
G1 F900 X53.564 Y93.162 E149.37028
G0 F2625 X53.564 Y93.869
G1 F900 X54.779 Y95.084 E149.42751
G0 F2625 X54.072 Y95.084
G1 F900 X53.564 Y94.576 E149.45144
;MESH:NONMESH
G0 F2625 X102.08 Y95.73
G0 X102.15 Y95.8
;TIME_ELAPSED:312.849554
;LAYER:1
M140 S85
M221 S100 T0
M106 S102
;MESH:
G0 F6562.5 X102.15 Y95.8 Z0.605
;TYPE:WALL-INNER
G1 F1200 X52.85 Y95.8 E150.14696
G1 X52.85 Y59.2 E150.66331
G1 X102.15 Y59.2 E151.35884
G1 X102.15 Y95.8 E151.87518
G0 F6562.5 X102.65 Y96.3
;TYPE:WALL-OUTER
G1 F1050 X52.35 Y96.3 E152.58481
G1 X52.35 Y58.7 E153.11527
G1 X102.65 Y58.7 E153.8249
G1 X102.65 Y96.3 E154.35536
G0 F6562.5 X102.4 Y96.3
G0 X102.08 Y95.73
G0 X101.66 Y95.31
;TYPE:SKIN
G1 F1050 X53.34 Y95.31 E155.03705
G1 X53.34 Y59.69 E155.53958
G1 X101.66 Y59.69 E156.22127
G1 X101.66 Y95.31 E156.72379
G0 F6562.5 X101.434 Y94.434
G1 F1050 X100.783 Y95.084 E156.73677
G0 F6562.5 X100.076 Y95.084
G1 F1050 X101.434 Y93.727 E156.76386
G0 F6562.5 X101.434 Y93.019
G1 F1050 X99.369 Y95.084 E156.80506
G0 F6562.5 X98.662 Y95.084
G1 F1050 X101.434 Y92.312 E156.86036
G0 F6562.5 X101.434 Y91.605
G1 F1050 X97.955 Y95.084 E156.92977
G0 F6562.5 X97.248 Y95.084
G1 F1050 X101.434 Y90.898 E157.01329
G0 F6562.5 X101.434 Y90.191
G1 F1050 X96.541 Y95.084 E157.11091
G0 F6562.5 X95.834 Y95.084
G1 F1050 X101.434 Y89.484 E157.22264
G0 F6562.5 X101.434 Y88.777
G1 F1050 X95.127 Y95.084 E157.34848
G0 F6562.5 X94.419 Y95.084
G1 F1050 X101.434 Y88.07 E157.48843
G0 F6562.5 X101.434 Y87.363
G1 F1050 X93.712 Y95.084 E157.64249
G0 F6562.5 X93.005 Y95.084
