;Generated by Cura LulzBot Edition GCodeWriter Version: 3.6.20
;FLAVOR:Marlin
;TIME:12750
;Filament used: 4.03745m
;Layer height: 0.14
;Generated with Cura_SteamEngine 3.6.20
M82 ;absolute extrusion mode
;Basic settings: Layer height: 0.14 Walls: 1 Fill: {fill_density}
;Print time: 03:32:30
;Filament used: [4.04]m [31.93801640625]g
;Filament cost: [0]
;M190 S60.0 ;Uncomment to add your own bed temperature line
;M109 S205 ;Uncomment to add your own temperature line
G21                          ; metric values
G90                          ; absolute positioning
M82                          ; set extruder to absolute mode
M107                         ; start with the fan off
G92 E0                       ; set extruder position to 0
M140 S110                    ; get bed heating up
G28                          ; home all
M109 S150                    ; set to cleaning temp and wait
G1 Z150 E-30 F75             ; suck up XXmm of filament
M109 S170                    ; heat up rest of way
G1 X45 Y174 F11520           ; move behind scraper
G1 Z0  F1200                 ; CRITICAL: set Z to height of top of scraper
G1 X45 Y174 Z-.5 F4000       ; wiping ; plunge into wipe pad
G1 X55 Y172 Z-.5 F4000       ; wiping
G1 X45 Y174 Z0 F4000         ; wiping
G1 X55 Y172 F4000            ; wiping
G1 X45 Y174 F4000            ; wiping
G1 X55 Y172 F4000            ; wiping
G1 X45 Y174 F4000            ; wiping
G1 X55 Y172 F4000            ; wiping
G1 X60 Y174 F4000            ; wiping
G1 X80 Y172 F4000            ; wiping
G1 X60 Y174 F4000            ; wiping
G1 X80 Y172 F4000            ; wiping
G1 X60 Y174 F4000            ; wiping
G1 X90 Y172 F4000            ; wiping
G1 X80 Y174 F4000            ; wiping
G1 X100 Y172 F4000           ; wiping
G1 X80 Y174 F4000            ; wiping
G1 X100 Y172 F4000           ; wiping
G1 X80 Y174 F4000            ; wiping
G1 X100 Y172 F4000           ; wiping
G1 X110 Y174 F4000           ; wiping
G1 X100 Y172 F4000           ; wiping
G1 X110 Y174 F4000           ; wiping
G1 X100 Y172 F4000           ; wiping
G1 X110 Y174 F4000           ; wiping
G1 X115 Y172 Z-0.5 F1000     ; wipe slower and bury noz in cleanish area
G1 Z10                       ; raise z
G28 X0 Y0                    ; home x and y
M109 S140                 ; set to probing temp
M204 S300                    ; set accel for probing
G28 X0 Y0                    ; home x and y
G29                          ; Probe
M204 S2000                   ; set accel back to normal
G1 X5 Y15 Z10 F5000          ; get out the way
M400                         ; clear buffer
G4 S1                        ; pause
M109 S210    ; set extruder temp and wait
G4 S25                       ; wait for bed to temp up
G1 Z2 E0 F75                 ; extrude filament back into nozzle
M140 S60.0; get bed temping up during first layer
M221 S100 T0
G92 E0
G1 F1200 E-1.5
;LAYER_COUNT:247
;LAYER:-7
M107
G0 F10500 X30.884 Y40.369 Z0.51
;TYPE:SUPPORT-INTERFACE
G1 F1200 E0
G1 F1350 X31.043 Y40.256 E0.01559
G1 X31.775 Y39.77 E0.08584
G1 X32.689 Y39.251 E0.16987
G1 X32.828 Y39.179 E0.18238
G1 X33.666 Y38.785 E0.25641
G1 X34.642 Y38.407 E0.34008
G1 X34.789 Y38.356 E0.35252
G1 X35.789 Y38.06 E0.4359
G1 X36.693 Y37.858 E0.50995
G1 X37.737 Y37.699 E0.59437
G1 X37.876 Y37.684 E0.60555
G1 X38.788 Y37.616 E0.67866
G1 X38.943 Y37.608 E0.69107
G1 X39.462 Y37.6 E0.73257
G1 X115.599 Y37.601 E6.81933
G1 X116.734 Y37.647 E6.91014
G1 X117.788 Y37.77 E6.99497
G1 X118.811 Y37.963 E7.0782
G1 X119.694 Y38.194 E7.15117
G1 X119.873 Y38.248 E7.16611
G1 X120.68 Y38.523 E7.23427
G1 X120.873 Y38.597 E7.2508
G1 X121.662 Y38.931 E7.31929
G1 X121.828 Y39.009 E7.33396
G1 X122.762 Y39.496 E7.41816
G1 X123.526 Y39.961 E7.48967
G1 X124.514 Y40.666 E7.5867
G1 X125.329 Y41.352 E7.67186
G1 X125.979 Y41.978 E7.74401
G1 X126.68 Y42.75 E7.82737
G1 X127.343 Y43.6 E7.91355
G1 X127.442 Y43.739 E7.92719
G1 X128.005 Y44.598 E8.0093
G1 X128.518 Y45.521 E8.09372
G1 X128.966 Y46.487 E8.17885
G1 X129.295 Y47.345 E8.25231
G1 X129.344 Y47.489 E8.26447
G1 X129.64 Y48.489 E8.34785
G1 X129.841 Y49.387 E8.42141
G1 X129.866 Y49.523 E8.43247
G1 X130.001 Y50.437 E8.50633
G1 X130.016 Y50.576 E8.51751
G1 X130.084 Y51.488 E8.59062
G1 X130.092 Y51.643 E8.60303
G1 X130.1 Y52.156 E8.64404
G1 X130.1 Y102.882 E12.69933
G1 X130.053 Y104.034 E12.7915
G1 X129.931 Y105.085 E12.87609
G1 X129.738 Y106.106 E12.95916
G1 X129.508 Y106.987 E13.03195
G1 X129.452 Y107.173 E13.04748
G1 X129.183 Y107.964 E13.11427
G1 X129.103 Y108.173 E13.13216
G1 X128.771 Y108.957 E13.20023
G1 X128.691 Y109.128 E13.21532
G1 X128.206 Y110.059 E13.29924
G1 X127.742 Y110.821 E13.37056
G1 X127.034 Y111.814 E13.46806
G1 X126.361 Y112.615 E13.5517
G1 X125.722 Y113.279 E13.62537
G1 X125.608 Y113.389 E13.63804
G1 X124.943 Y113.986 E13.70948
G1 X124.116 Y114.631 E13.79332
G1 X123.957 Y114.744 E13.80892
G1 X123.225 Y115.23 E13.87916
G1 X122.311 Y115.749 E13.96319
G1 X122.172 Y115.821 E13.9757
G1 X121.334 Y116.215 E14.04973
G1 X120.358 Y116.593 E14.13341
G1 X120.211 Y116.644 E14.14585
G1 X119.211 Y116.94 E14.22922
G1 X118.307 Y117.142 E14.30327
G1 X117.263 Y117.301 E14.3877
G1 X117.124 Y117.316 E14.39887
G1 X116.212 Y117.384 E14.47199
G1 X115.626 Y117.399 E14.51885
G1 X39.434 Y117.4 E20.61001
G1 X38.407 Y117.363 E20.69217
G1 X37.376 Y117.254 E20.77505
G1 X37.212 Y117.23 E20.7883
G1 X36.189 Y117.037 E20.87152
G1 X35.306 Y116.806 E20.94449
G1 X35.127 Y116.752 E20.95944
G1 X34.32 Y116.477 E21.0276
G1 X34.127 Y116.403 E21.04412
G1 X33.338 Y116.069 E21.11262
G1 X33.172 Y115.991 E21.12728
G1 X32.238 Y115.504 E21.21149
G1 X31.474 Y115.039 E21.28299
G1 X30.486 Y114.334 E21.38002
G1 X29.781 Y113.747 E21.45336
G1 X29.021 Y113.022 E21.53733
G1 X28.314 Y112.243 E21.62143
G1 X27.665 Y111.41 E21.70585
G1 X27.556 Y111.257 E21.72087
G1 X27.067 Y110.52 E21.79158
G1 X26.551 Y109.611 E21.87514
G1 X26.473 Y109.461 E21.88866
G1 X26.034 Y108.513 E21.97218
G1 X25.707 Y107.658 E22.04536
G1 X25.655 Y107.507 E22.05813
G1 X25.36 Y106.51 E22.14125
G1 X25.158 Y105.607 E22.21522
G1 X25.131 Y105.46 E22.22717
G1 X24.999 Y104.563 E22.29965
G1 X24.984 Y104.424 E22.31083
G1 X24.916 Y103.509 E22.38418
G1 X24.908 Y103.357 E22.39635
G1 X24.9 Y102.844 E22.43737
G1 X24.9 Y52.118 E26.49265
G1 X24.947 Y50.966 E26.58482
G1 X25.069 Y49.915 E26.66941
G1 X25.262 Y48.894 E26.75248
G1 X25.492 Y48.013 E26.82527
G1 X25.548 Y47.827 E26.8408
G1 X25.823 Y47.02 E26.90896
G1 X25.897 Y46.827 E26.92548
G1 X26.229 Y46.043 E26.99355
G1 X26.309 Y45.872 E27.00864
G1 X26.796 Y44.938 E27.09285
G1 X27.261 Y44.174 E27.16435
G1 X27.966 Y43.186 E27.26138
G1 X28.639 Y42.385 E27.34502
G1 X29.278 Y41.721 E27.41869
G1 X30.057 Y41.014 E27.5028
G1 X30.884 Y40.369 E27.58664
G0 F10500 X30 Y41.065
G1 F1350 X30 Y113.929 E33.41174
G0 F10500 X32 Y115.359
G1 F1350 X32 Y39.642 E39.46493
G0 F10500 X34 Y38.655
G1 F1350 X34 Y116.349 E45.67616
G0 F10500 X36 Y116.987
G1 F1350 X36 Y38.012 E51.98981
G0 F10500 X38 Y37.674
G1 F1350 X38 Y117.319 E58.35702
G0 F10500 X40 Y117.4
G1 F1350 X40 Y37.601 E64.73654
G0 F10500 X42 Y37.601
G1 F1350 X42 Y117.4 E71.11606
G0 F10500 X44 Y117.4
G1 F1350 X44 Y37.601 E77.49558
G0 F10500 X46 Y37.601
G1 F1350 X46 Y117.4 E83.8751
G0 F10500 X48 Y117.4
G1 F1350 X48 Y37.601 E90.25462
G0 F10500 X50 Y37.601
G1 F1350 X50 Y117.4 E96.63414
G0 F10500 X52 Y117.4
G1 F1350 X52 Y37.601 E103.01366
G0 F10500 X54 Y37.601
G1 F1350 X54 Y117.4 E109.39318
G0 F10500 X56 Y117.4
G1 F1350 X56 Y37.601 E115.7727
G0 F10500 X58 Y37.601
G1 F1350 X58 Y117.4 E122.15222
G0 F10500 X60 Y117.4
G1 F1350 X60 Y37.601 E128.53174
G0 F10500 X62 Y37.601
G1 F1350 X62 Y117.4 E134.91126
G0 F10500 X64 Y117.4
G1 F1350 X64 Y37.601 E141.29078
G0 F10500 X66 Y37.601
G1 F1350 X66 Y117.4 E147.6703
G0 F10500 X68 Y117.4
G1 F1350 X68 Y37.601 E154.04982
G0 F10500 X70 Y37.601
G1 F1350 X70 Y117.4 E160.42934
G0 F10500 X72 Y117.4
G1 F1350 X72 Y37.601 E166.80886
G0 F10500 X74 Y37.601
G1 F1350 X74 Y117.4 E173.18838
G0 F10500 X76 Y117.4
G1 F1350 X76 Y37.601 E179.56791
G0 F10500 X78 Y37.601
G1 F1350 X78 Y117.4 E185.94743
G0 F10500 X80 Y117.4
G1 F1350 X80 Y37.601 E192.32695
G0 F10500 X82 Y37.601
G1 F1350 X82 Y117.4 E198.70647
G0 F10500 X84 Y117.4
G1 F1350 X84 Y37.601 E205.08599
G0 F10500 X86 Y37.601
G1 F1350 X86 Y117.4 E211.46551
G0 F10500 X88 Y117.4
G1 F1350 X88 Y37.601 E217.84503
G0 F10500 X90 Y37.601
G1 F1350 X90 Y117.4 E224.22455
G0 F10500 X92 Y117.4
G1 F1350 X92 Y37.601 E230.60407
G0 F10500 X94 Y37.601
G1 F1350 X94 Y117.4 E236.98359
G0 F10500 X96 Y117.4
G1 F1350 X96 Y37.601 E243.36311
G0 F10500 X98 Y37.601
G1 F1350 X98 Y117.4 E249.74263
G0 F10500 X100 Y117.4
G1 F1350 X100 Y37.601 E256.12215
G0 F10500 X102 Y37.601
G1 F1350 X102 Y117.4 E262.50167
G0 F10500 X104 Y117.4
G1 F1350 X104 Y37.601 E268.88119
G0 F10500 X106 Y37.601
G1 F1350 X106 Y117.4 E275.26071
G0 F10500 X108 Y117.4
G1 F1350 X108 Y37.601 E281.64023
G0 F10500 X110 Y37.601
G1 F1350 X110 Y117.4 E288.01975
G0 F10500 X112 Y117.4
G1 F1350 X112 Y37.601 E294.39927
G0 F10500 X114 Y37.601
G1 F1350 X114 Y117.4 E300.77879
G0 F10500 X116 Y117.39
G1 F1350 X116 Y37.618 E307.15615
G0 F10500 X118 Y37.81
G1 F1350 X118 Y117.189 E313.5021
G0 F10500 X120 Y116.707
G1 F1350 X120 Y38.292 E319.77097
G0 F10500 X122 Y39.099
G1 F1350 X122 Y115.902 E325.91098
G0 F10500 X124 Y114.714
G1 F1350 X124 Y40.3 E331.86
G0 F10500 X126 Y42.002
G1 F1350 X126 Y112.991 E337.5352
G0 F10500 X128 Y110.398
G1 F1350 X128 Y44.591 E342.79613
G0 F10500 X130 Y50.431
G1 F1350 X130 Y104.491 E347.11795
G0 F10500 X28 Y111.839
G1 F1350 X28 Y43.145 E352.60969
G0 F10500 X26 Y46.583
M104 S205
G1 F1350 X26 Y108.424 E357.55356
G0 F10500 X26.677 Y109.832
;TIME_ELAPSED:209.230464
;LAYER:-6
M140 S60
M221 S100 T0
G0 X26.677 Y109.832 Z0.72
;TYPE:SUPPORT
G1 F1350 X32.465 Y115.621 E357.82303
G1 X32.238 Y115.503 E357.83145
G1 X31.474 Y115.038 E357.8609
G1 X30.486 Y114.333 E357.90085
G1 X29.781 Y113.745 E357.93107
G1 X29.021 Y113.021 E357.96562
G1 X28.313 Y112.241 E358.0003
G1 X27.664 Y111.408 E358.03506
G1 X27.555 Y111.256 E358.04122
G1 X27.066 Y110.519 E358.07033
G0 F10500 X32.465 Y115.621
G1 F1350 X33.172 Y115.99 E358.09659
G1 X33.337 Y116.068 E358.10259
G1 X34.127 Y116.401 E358.13082
G1 X34.32 Y116.476 E358.13763
G1 X35.126 Y116.751 E358.16567
G1 X35.305 Y116.805 E358.17182
G1 X35.36 Y116.819 E358.17369
G1 X25.489 Y106.948 E358.63322
G1 X25.36 Y106.509 E358.64828
G1 X25.157 Y105.606 E358.67875
G1 X25.13 Y105.459 E358.68367
G1 X25.032 Y104.794 E358.7058
G1 X37.504 Y117.266 E359.28642
G1 X38.407 Y117.362 E359.31631
G1 X39.33 Y117.395 E359.34671
G1 X24.901 Y102.966 E360.01844
G1 X24.9 Y102.843 E360.02248
G1 X24.899 Y101.266 E360.0744
G1 X41.031 Y117.398 E360.8254
G1 X42.728 Y117.398 E360.88127
G1 X24.899 Y99.569 E361.71127
G1 X24.899 Y97.872 E361.76713
G1 X44.425 Y117.398 E362.67614
G1 X46.122 Y117.398 E362.73201
G1 X24.899 Y96.175 E363.72002
G1 X24.899 Y94.478 E363.77588
G1 X47.819 Y117.398 E364.84289
G1 X49.516 Y117.398 E364.89875
G1 X24.899 Y92.781 E366.04477
G1 X24.899 Y91.084 E366.10063
G1 X51.213 Y117.398 E367.32565
G1 X52.91 Y117.398 E367.38151
G1 X24.899 Y89.387 E368.68553
G1 X24.899 Y87.69 E368.74139
G1 X54.607 Y117.398 E370.12441
G1 X56.304 Y117.398 E370.18027
G1 X24.899 Y85.993 E371.64229
G1 X24.899 Y84.296 E371.69815
G1 X58.001 Y117.398 E373.23917
G1 X59.698 Y117.398 E373.29504
G1 X24.899 Y82.599 E374.91506
G1 X24.899 Y80.902 E374.97092
G1 X61.395 Y117.398 E376.66995
G1 X63.093 Y117.398 E376.72585
G1 X24.899 Y79.205 E378.5039
G1 X24.899 Y77.508 E378.55976
G1 X64.79 Y117.398 E380.41681
G1 X66.487 Y117.398 E380.47267
G1 X24.899 Y75.811 E382.40873
G1 X24.899 Y74.113 E382.46462
G1 X68.184 Y117.398 E384.4797
G1 X69.881 Y117.398 E384.53557
G1 X24.899 Y72.416 E386.62965
G1 X24.899 Y70.719 E386.68551
G1 X71.578 Y117.398 E388.85859
G1 X73.275 Y117.398 E388.91445
G1 X24.899 Y69.022 E391.16654
G1 X24.899 Y67.325 E391.2224
G1 X74.972 Y117.398 E393.55349
G1 X76.669 Y117.398 E393.60935
G1 X24.899 Y65.628 E396.01944
G1 X24.899 Y63.931 E396.0753
G1 X78.365 Y117.398 E398.56437
G1 X80.062 Y117.398 E398.62023
G1 X24.899 Y62.234 E401.1883
G1 X24.899 Y60.537 E401.24416
G1 X81.759 Y117.398 E403.89123
G1 X83.456 Y117.398 E403.94709
G1 X24.899 Y58.84 E406.67316
G1 X24.899 Y57.143 E406.72903
G1 X85.154 Y117.398 E409.53412
G1 X86.851 Y117.398 E409.58998
G1 X24.899 Y55.446 E412.47408
G1 X24.899 Y53.749 E412.52995
G1 X88.548 Y117.398 E415.49305
G1 X90.245 Y117.398 E415.54891
G1 X24.901 Y52.054 E418.59092
G1 X24.946 Y50.965 E418.6268
G1 X25.004 Y50.46 E418.64353
G1 X91.942 Y117.398 E421.75974
G1 X93.639 Y117.398 E421.81561
G1 X25.241 Y49 E424.99979
G1 X25.262 Y48.893 E425.00338
G1 X25.491 Y48.011 E425.03338
G1 X25.547 Y47.825 E425.03977
G1 X25.602 Y47.663 E425.0454
G1 X95.336 Y117.398 E428.2918
G1 X97.033 Y117.398 E428.34767
G1 X26.064 Y46.429 E431.65154
G1 X26.229 Y46.042 E431.66539
G1 X26.308 Y45.871 E431.67159
G1 X26.614 Y45.282 E431.69344
G1 X98.73 Y117.398 E435.05071
G1 X100.427 Y117.398 E435.10657
G1 X27.238 Y44.209 E438.5138
G1 X27.261 Y44.173 E438.5152
G1 X27.943 Y43.216 E438.55389
G1 X102.124 Y117.398 E442.00731
G1 X103.821 Y117.398 E442.06318
G1 X28.721 Y42.297 E445.55939
G1 X29.277 Y41.72 E445.58576
G1 X29.573 Y41.452 E445.59891
G1 X105.518 Y117.398 E449.13446
G1 X107.215 Y117.398 E449.19032
G1 X30.491 Y40.674 E452.76211
G1 X30.884 Y40.368 E452.7785
G1 X31.043 Y40.255 E452.78493
G1 X31.48 Y39.965 E452.80219
G1 X108.912 Y117.398 E456.40696
G1 X110.609 Y117.398 E456.46283
G1 X32.544 Y39.332 E460.09707
G1 X32.688 Y39.25 E460.10252
G1 X32.828 Y39.177 E460.10772
G1 X33.666 Y38.784 E460.13819
G1 X33.685 Y38.777 E460.13886
G1 X112.306 Y117.398 E463.79896
G1 X114.003 Y117.398 E463.85482
G1 X34.922 Y38.316 E467.53636
G1 X35.789 Y38.059 E467.56613
G1 X36.257 Y37.954 E467.58192
G1 X115.698 Y117.395 E471.28019
G1 X116.212 Y117.383 E471.29712
G1 X117.124 Y117.315 E471.32722
G1 X117.263 Y117.299 E471.33183
G1 X117.294 Y117.294 E471.33286
G1 X37.704 Y37.704 E475.03808
G1 X37.736 Y37.699 E475.03914
G1 X37.874 Y37.683 E475.04372
G1 X38.786 Y37.615 E475.07382
G1 X38.941 Y37.608 E475.07893
G1 X39.3 Y37.603 E475.09075
G1 X118.741 Y117.044 E478.78902
G1 X119.209 Y116.939 E478.80481
G1 X120.076 Y116.682 E478.83458
G1 X40.995 Y37.601 E482.5161
G1 X42.692 Y37.601 E482.57196
G1 X121.313 Y116.222 E486.23206
G1 X121.333 Y116.215 E486.23276
G1 X122.171 Y115.821 E486.26324
G1 X122.31 Y115.748 E486.26841
G1 X122.454 Y115.666 E486.27387
G1 X44.389 Y37.601 E489.90809
G1 X46.086 Y37.601 E489.96395
G1 X123.519 Y115.034 E493.56874
G1 X123.956 Y114.744 E493.58601
G1 X124.114 Y114.631 E493.5924
G1 X124.507 Y114.325 E493.6088
G1 X47.783 Y37.601 E497.18059
G1 X49.48 Y37.601 E497.23645
G1 X125.428 Y113.549 E500.77212
G1 X125.607 Y113.388 E500.78004
G1 X125.721 Y113.279 E500.78523
G1 X126.277 Y112.701 E500.81164
G1 X51.177 Y37.601 E504.30782
G1 X52.874 Y37.601 E504.36368
G1 X127.056 Y111.782 E507.81711
G1 X127.74 Y110.821 E507.85594
G1 X127.76 Y110.79 E507.85716
G1 X54.571 Y37.601 E511.26438
G1 X56.268 Y37.601 E511.32024
G1 X128.383 Y109.716 E514.67747
G1 X128.69 Y109.127 E514.69933
G1 X128.77 Y108.957 E514.70551
G1 X128.934 Y108.569 E514.71938
G1 X57.965 Y37.601 E518.02323
G1 X59.662 Y37.601 E518.07909
G1 X129.397 Y107.335 E521.3255
G1 X129.451 Y107.173 E521.33112
G1 X129.507 Y106.987 E521.33751
G1 X129.737 Y106.105 E521.36752
G1 X129.757 Y105.998 E521.3711
G1 X61.359 Y37.601 E524.55526
G1 X63.056 Y37.601 E524.61112
G1 X129.994 Y104.538 E527.72731
G1 X130.052 Y104.033 E527.74405
G1 X130.097 Y102.944 E527.77993
G1 X64.754 Y37.601 E530.82189
G1 X66.451 Y37.601 E530.87775
G1 X130.099 Y101.249 E533.8408
G1 X130.099 Y99.552 E533.89667
G1 X68.148 Y37.601 E536.78072
G1 X69.845 Y37.601 E536.83658
G1 X130.099 Y97.855 E539.64163
G1 X130.099 Y96.158 E539.69749
G1 X71.542 Y37.601 E542.42354
G1 X73.239 Y37.601 E542.4794
G1 X130.099 Y94.461 E545.12645
G1 X130.099 Y92.764 E545.18231
G1 X74.936 Y37.601 E547.75036
G1 X76.633 Y37.601 E547.80622
G1 X130.099 Y91.067 E550.29526
G1 X130.099 Y89.37 E550.35113
G1 X78.33 Y37.601 E552.76117
G1 X80.027 Y37.601 E552.81703
G1 X130.099 Y87.673 E555.14807
G1 X130.099 Y85.976 E555.20393
