;Generated by Cura LulzBot Edition GCodeWriter Version: 3.6.20
;FLAVOR:Marlin
;TIME:10177
;Filament used: 2.94475m
;Layer height: 0.18
;Generated with Cura_SteamEngine 3.6.20
M82 ;absolute extrusion mode
;Basic settings: Layer height: 0.18 Walls: 1.0 Fill: {fill_density}
;Print time: 02:49:38
;Filament used: [2.94]m [19.5371434375]g
;Filament cost: [0]
;M190 S85.0 ;Uncomment to add your own bed temperature line
;M109 S240 ;Uncomment to add your own temperature line
G21                          ; metric values
G90                          ; absolute positioning
M82                          ; set extruder to absolute mode
M107                         ; start with the fan off
G92 E0                       ; set extruder position to 0
M140 S110                    ; get bed heating up
G28                          ; home all
M109 S150                    ; set to cleaning temp and wait
G1 Z150 E-30 F75             ; suck up XXmm of filament
M109 S170                    ; heat up rest of way
G1 X45 Y174 F11520           ; move behind scraper
G1 Z0  F1200                 ; CRITICAL: set Z to height of top of scraper
G1 X45 Y174 Z-.5 F4000       ; wiping ; plunge into wipe pad
G1 X55 Y172 Z-.5 F4000       ; wiping
G1 X45 Y174 Z0 F4000         ; wiping
G1 X55 Y172 F4000            ; wiping
G1 X45 Y174 F4000            ; wiping
G1 X55 Y172 F4000            ; wiping
G1 X45 Y174 F4000            ; wiping
G1 X55 Y172 F4000            ; wiping
G1 X60 Y174 F4000            ; wiping
G1 X80 Y172 F4000            ; wiping
G1 X60 Y174 F4000            ; wiping
G1 X80 Y172 F4000            ; wiping
G1 X60 Y174 F4000            ; wiping
G1 X90 Y172 F4000            ; wiping
G1 X80 Y174 F4000            ; wiping
G1 X100 Y172 F4000           ; wiping
G1 X80 Y174 F4000            ; wiping
G1 X100 Y172 F4000           ; wiping
G1 X80 Y174 F4000            ; wiping
G1 X100 Y172 F4000           ; wiping
G1 X110 Y174 F4000           ; wiping
G1 X100 Y172 F4000           ; wiping
G1 X110 Y174 F4000           ; wiping
G1 X100 Y172 F4000           ; wiping
G1 X110 Y174 F4000           ; wiping
G1 X115 Y172 Z-0.5 F1000     ; wipe slower and bury noz in cleanish area
G1 Z10                       ; raise z
G28 X0 Y0                    ; home x and y
M109 S170                 ; set to probing temp
M204 S300                    ; set accel for probing
G28 X0 Y0                    ; home x and y
G29                          ; Probe
M204 S2000                   ; set accel back to normal
G1 X5 Y15 Z10 F5000          ; get out the way
M400                         ; clear buffer
G4 S1                        ; pause
M109 S245    ; set extruder temp and wait
G4 S25                       ; wait for bed to temp up
G1 Z2 E0 F75                 ; extrude filament back into nozzle
M140 S85.0; get bed temping up during first layer
M221 S100 T0
G92 E0
G1 F600 E-1
;LAYER_COUNT:192
;LAYER:0
M107
G0 F2625 X36.974 Y48.626 Z0.425
;TYPE:SKIRT
G1 F600 E0
G1 F900 X37.473 Y48.326 E0.01939
G1 X38.009 Y48.096 E0.03882
G1 X38.571 Y47.942 E0.05823
G1 X39.409 Y47.859 E0.08628
G1 X115.591 Y47.86 E2.62393
G1 X116.172 Y47.9 E2.64333
G1 X116.743 Y48.019 E2.66276
G1 X117.292 Y48.215 E2.68218
G1 X117.808 Y48.484 E2.70156
G1 X118.284 Y48.822 E2.72101
G1 X118.708 Y49.221 E2.7404
G1 X119.074 Y49.675 E2.75983
G1 X119.374 Y50.174 E2.77922
G1 X119.604 Y50.71 E2.79865
G1 X119.758 Y51.272 E2.81806
G1 X119.841 Y52.11 E2.84611
G1 X119.841 Y102.891 E4.53765
G1 X119.801 Y103.472 E4.55705
G1 X119.682 Y104.043 E4.57648
G1 X119.486 Y104.592 E4.59589
G1 X119.217 Y105.108 E4.61528
G1 X118.879 Y105.584 E4.63472
G1 X118.48 Y106.008 E4.65412
G1 X118.026 Y106.374 E4.67354
G1 X117.527 Y106.674 E4.69294
G1 X116.991 Y106.904 E4.71237
G1 X116.429 Y107.058 E4.73178
G1 X115.591 Y107.141 E4.75983
G1 X39.409 Y107.141 E7.29748
G1 X38.828 Y107.101 E7.31688
G1 X38.257 Y106.982 E7.3363
G1 X37.708 Y106.786 E7.35572
G1 X37.192 Y106.517 E7.37511
G1 X36.716 Y106.179 E7.39455
G1 X36.292 Y105.78 E7.41395
G1 X35.926 Y105.326 E7.43337
G1 X35.626 Y104.827 E7.45277
G1 X35.396 Y104.291 E7.47219
G1 X35.242 Y103.729 E7.49161
G1 X35.159 Y102.891 E7.51966
G1 X35.159 Y52.109 E9.21122
G1 X35.199 Y51.528 E9.23062
G1 X35.318 Y50.957 E9.25005
G1 X35.514 Y50.408 E9.26947
G1 X35.783 Y49.892 E9.28885
G1 X36.121 Y49.416 E9.3083
G1 X36.52 Y48.992 E9.32769
G1 X36.974 Y48.626 E9.34712
G0 F2625 X37.455 Y48.908
G1 F900 X37.942 Y48.658 E9.36535
G1 X38.46 Y48.481 E9.38359
G1 X38.998 Y48.382 E9.40181
G1 X39.409 Y48.359 E9.41552
G1 X115.591 Y48.36 E11.95317
G1 X116.137 Y48.4 E11.97141
G1 X116.671 Y48.519 E11.98963
G1 X117.182 Y48.714 E12.00785
G1 X117.66 Y48.982 E12.0261
G1 X118.093 Y49.317 E12.04434
G1 X118.473 Y49.711 E12.06257
G1 X118.792 Y50.156 E12.08081
G1 X119.042 Y50.643 E12.09905
G1 X119.219 Y51.161 E12.11728
G1 X119.318 Y51.699 E12.1355
G1 X119.341 Y52.11 E12.14922
G1 X119.341 Y102.891 E13.84075
G1 X119.301 Y103.437 E13.85898
G1 X119.182 Y103.971 E13.87721
G1 X118.987 Y104.482 E13.89543
G1 X118.719 Y104.96 E13.91368
G1 X118.384 Y105.393 E13.93192
G1 X117.99 Y105.773 E13.95015
G1 X117.545 Y106.092 E13.96839
G1 X117.058 Y106.342 E13.98662
G1 X116.54 Y106.519 E14.00486
G1 X116.002 Y106.618 E14.02308
G1 X115.591 Y106.641 E14.03679
G1 X39.409 Y106.641 E16.57444
G1 X38.863 Y106.601 E16.59268
G1 X38.329 Y106.482 E16.6109
G1 X37.818 Y106.287 E16.62912
G1 X37.34 Y106.019 E16.64738
G1 X36.907 Y105.684 E16.66561
G1 X36.527 Y105.29 E16.68385
G1 X36.208 Y104.845 E16.70208
G1 X35.958 Y104.358 E16.72032
G1 X35.781 Y103.84 E16.73855
G1 X35.682 Y103.302 E16.75678
G1 X35.659 Y102.891 E16.77049
G1 X35.659 Y52.109 E18.46205
G1 X35.699 Y51.563 E18.48029
G1 X35.818 Y51.029 E18.49851
G1 X36.013 Y50.518 E18.51673
G1 X36.281 Y50.04 E18.53499
G1 X36.616 Y49.607 E18.55322
G1 X37.01 Y49.227 E18.57146
G1 X37.455 Y48.908 E18.5897
G0 F2625 X37.496 Y49.481
G1 F900 X37.931 Y49.215 E18.60668
G1 X38.401 Y49.019 E18.62364
G1 X38.896 Y48.9 E18.6406
G1 X39.409 Y48.859 E18.65774
G1 X115.591 Y48.86 E21.19539
G1 X116.099 Y48.9 E21.21237
G1 X116.594 Y49.019 E21.22933
G1 X117.065 Y49.214 E21.24631
G1 X117.5 Y49.48 E21.26329
G1 X117.887 Y49.81 E21.28023
G1 X118.219 Y50.197 E21.29722
G1 X118.485 Y50.632 E21.3142
G1 X118.681 Y51.102 E21.33116
G1 X118.8 Y51.597 E21.34812
G1 X118.841 Y52.11 E21.36527
G1 X118.841 Y102.891 E23.0568
G1 X118.801 Y103.399 E23.07377
G1 X118.682 Y103.894 E23.09073
G1 X118.487 Y104.365 E23.10771
G1 X118.221 Y104.8 E23.1247
G1 X117.891 Y105.187 E23.14164
G1 X117.504 Y105.519 E23.15862
G1 X117.069 Y105.785 E23.17561
G1 X116.599 Y105.981 E23.19257
G1 X116.104 Y106.1 E23.20953
G1 X115.591 Y106.141 E23.22667
G1 X39.409 Y106.141 E25.76432
G1 X38.901 Y106.101 E25.78129
G1 X38.406 Y105.982 E25.79825
G1 X37.935 Y105.787 E25.81523
G1 X37.5 Y105.521 E25.83222
G1 X37.113 Y105.191 E25.84916
G1 X36.781 Y104.804 E25.86614
G1 X36.515 Y104.369 E25.88313
G1 X36.319 Y103.899 E25.90009
G1 X36.2 Y103.404 E25.91705
G1 X36.159 Y102.891 E25.93419
G1 X36.159 Y52.109 E27.62576
G1 X36.199 Y51.601 E27.64273
G1 X36.318 Y51.106 E27.65969
G1 X36.513 Y50.635 E27.67667
G1 X36.779 Y50.2 E27.69366
G1 X37.109 Y49.813 E27.7106
G1 X37.496 Y49.481 E27.72758
G1 F600 E26.72758
;MESH:
G0 F2625 X40.164 Y51.435
G0 X40.164 Y52.864
G0 X52.1 Y54.549
G0 X52.1 Y54.649
;TYPE:WALL-INNER
G1 F600 E27.72758
G1 F900 X51.263 Y54.723 E27.75557
G1 X50.452 Y54.939 E27.78353
G1 X49.691 Y55.294 E27.8115
G1 X49.004 Y55.777 E27.83947
G1 X48.411 Y56.37 E27.86741
G1 X47.928 Y57.057 E27.89538
G1 X47.573 Y57.818 E27.92336
G1 X47.357 Y58.629 E27.95131
G1 X47.286 Y59.433 E27.9782
G1 X47.286 Y95.567 E29.18183
G1 X47.357 Y96.371 E29.20872
G1 X47.573 Y97.182 E29.23668
G1 X47.928 Y97.943 E29.26465
G1 X48.411 Y98.63 E29.29262
G1 X49.004 Y99.223 E29.32056
G1 X49.691 Y99.706 E29.34853
G1 X50.452 Y100.061 E29.3765
G1 X51.263 Y100.277 E29.40446
G1 X52.1 Y100.351 E29.43245
G1 X52.937 Y100.277 E29.46044
G1 X53.748 Y100.061 E29.48839
G1 X54.509 Y99.706 E29.51637
G1 X55.196 Y99.223 E29.54434
G1 X55.789 Y98.63 E29.57228
G1 X56.272 Y97.943 E29.60025
G1 X56.627 Y97.182 E29.62822
G1 X56.843 Y96.371 E29.65618
G1 X56.914 Y95.567 E29.68306
G1 X56.914 Y59.433 E30.8867
G1 X56.843 Y58.629 E30.91359
G1 X56.627 Y57.818 E30.94154
G1 X56.272 Y57.057 E30.96951
G1 X55.789 Y56.37 E30.99749
G1 X55.196 Y55.777 E31.02542
G1 X54.509 Y55.294 E31.0534
G1 X53.748 Y54.939 E31.08137
G1 X52.937 Y54.723 E31.10932
G1 X52.1 Y54.649 E31.13731
G0 F2625 X52.1 Y54.549
G0 X102.9 Y54.549
G0 X102.9 Y54.649
G1 F900 X102.063 Y54.723 E31.1653
G1 X101.252 Y54.939 E31.19326
G1 X100.491 Y55.294 E31.22123
G1 X99.804 Y55.777 E31.24921
G1 X99.211 Y56.37 E31.27714
G1 X98.728 Y57.057 E31.30511
G1 X98.373 Y57.818 E31.33309
G1 X98.157 Y58.629 E31.36104
G1 X98.086 Y59.433 E31.38793
G1 X98.086 Y95.567 E32.59156
G1 X98.157 Y96.371 E32.61845
G1 X98.373 Y97.182 E32.64641
G1 X98.728 Y97.943 E32.67438
G1 X99.211 Y98.63 E32.70235
G1 X99.804 Y99.223 E32.73029
G1 X100.491 Y99.706 E32.75826
G1 X101.252 Y100.061 E32.78623
G1 X102.063 Y100.277 E32.81419
G1 X102.9 Y100.351 E32.84218
G1 X103.737 Y100.277 E32.87017
G1 X104.548 Y100.061 E32.89813
G1 X105.309 Y99.706 E32.9261
G1 X105.996 Y99.223 E32.95407
G1 X106.589 Y98.63 E32.98201
G1 X107.072 Y97.943 E33.00998
G1 X107.427 Y97.182 E33.03795
G1 X107.643 Y96.371 E33.06591
G1 X107.714 Y95.567 E33.09279
G1 X107.714 Y59.433 E34.29643
G1 X107.643 Y58.629 E34.32332
G1 X107.427 Y57.818 E34.35127
G1 X107.072 Y57.057 E34.37924
G1 X106.589 Y56.37 E34.40722
G1 X105.996 Y55.777 E34.43515
G1 X105.309 Y55.294 E34.46313
G1 X104.548 Y54.939 E34.4911
G1 X103.737 Y54.723 E34.51906
G1 X102.9 Y54.649 E34.54704
G0 F2625 X102.9 Y54.549
G0 X103.743 Y54.684
G0 X104.561 Y54.902
G0 X105.329 Y55.26
G0 X106.021 Y55.747
G0 X106.619 Y56.345
G0 X107.106 Y57.037
G0 X107.464 Y57.805
G0 X107.587 Y58.268
G0 X114.78 Y102.08
G0 X114.85 Y102.15
G1 F900 X40.15 Y102.15 E37.03533
G1 X40.15 Y52.85 E38.67753
G1 X114.85 Y52.85 E41.16581
G1 X114.85 Y102.15 E42.80801
G0 F2625 X115.35 Y102.65
;TYPE:WALL-OUTER
G1 F900 X39.65 Y102.65 E45.32961
G1 X39.65 Y52.35 E47.00512
G1 X115.35 Y52.35 E49.52671
G1 X115.35 Y102.65 E51.20223
G0 F2625 X115.1 Y102.65
G0 X114.78 Y102.08
G0 X107.682 Y58.623
G0 X107.464 Y57.805
G0 X107.106 Y57.037
G0 X106.619 Y56.345
G0 X106.281 Y56.007
G0 X105.312 Y55.186
G0 X105.058 Y55.729
G1 F900 X104.376 Y55.411 E51.22729
G1 X103.65 Y55.217 E51.25232
G1 X102.9 Y55.151 E51.2774
G1 X102.15 Y55.217 E51.30248
G1 X101.424 Y55.411 E51.32751
G1 X100.742 Y55.729 E51.35258
G1 X100.127 Y56.161 E51.37761
G1 X99.595 Y56.693 E51.40268
G1 X99.163 Y57.308 E51.42771
G1 X98.845 Y57.99 E51.45278
G1 X98.651 Y58.716 E51.47781
G1 X98.586 Y59.455 E51.50252
G1 X98.586 Y95.545 E52.70469
G1 X98.651 Y96.284 E52.7294
G1 X98.845 Y97.01 E52.75443
G1 X99.163 Y97.692 E52.7795
G1 X99.595 Y98.307 E52.80453
G1 X100.127 Y98.839 E52.8296
G1 X100.742 Y99.271 E52.85463
G1 X101.424 Y99.589 E52.8797
G1 X102.15 Y99.783 E52.90473
G1 X102.9 Y99.849 E52.92981
G1 X103.65 Y99.783 E52.95489
G1 X104.376 Y99.589 E52.97992
G1 X105.058 Y99.271 E53.00498
G1 X105.673 Y98.839 E53.03002
G1 X106.205 Y98.307 E53.05508
G1 X106.637 Y97.692 E53.08012
G1 X106.955 Y97.01 E53.10518
G1 X107.149 Y96.284 E53.13021
G1 X107.214 Y95.545 E53.15492
G1 X107.214 Y59.455 E54.3571
G1 X107.149 Y58.716 E54.38181
G1 X106.955 Y57.99 E54.40684
G1 X106.637 Y57.308 E54.4319
G1 X106.205 Y56.693 E54.45694
G1 X105.673 Y56.161 E54.482
G1 X105.058 Y55.729 E54.50704
G0 F2625 X104.832 Y55.624
G0 X105.086 Y55.081
G0 X103.743 Y54.684
G0 X103.266 Y54.643
G0 X54.512 Y55.186
G0 X54.258 Y55.729
G1 F900 X53.576 Y55.411 E54.5321
G1 X52.85 Y55.217 E54.55713
G1 X52.1 Y55.151 E54.58221
G1 X51.35 Y55.217 E54.60729
G1 X50.624 Y55.411 E54.63232
G1 X49.942 Y55.729 E54.65739
G1 X49.327 Y56.161 E54.68243
G1 X48.795 Y56.693 E54.70749
G1 X48.363 Y57.308 E54.73252
G1 X48.045 Y57.99 E54.75759
G1 X47.851 Y58.716 E54.78262
G1 X47.786 Y59.455 E54.80733
G1 X47.786 Y95.545 E56.0095
G1 X47.851 Y96.284 E56.03421
G1 X48.045 Y97.01 E56.05924
G1 X48.363 Y97.692 E56.08431
G1 X48.795 Y98.307 E56.10935
G1 X49.327 Y98.839 E56.13441
G1 X49.942 Y99.271 E56.15944
G1 X50.624 Y99.589 E56.18451
G1 X51.35 Y99.783 E56.20954
G1 X52.1 Y99.849 E56.23462
G1 X52.85 Y99.783 E56.2597
G1 X53.576 Y99.589 E56.28473
G1 X54.258 Y99.271 E56.3098
G1 X54.873 Y98.839 E56.33483
G1 X55.405 Y98.307 E56.35989
G1 X55.837 Y97.692 E56.38493
G1 X56.155 Y97.01 E56.40999
G1 X56.349 Y96.284 E56.43502
G1 X56.414 Y95.545 E56.45974
G1 X56.414 Y59.455 E57.66191
G1 X56.349 Y58.716 E57.68662
G1 X56.155 Y57.99 E57.71165
G1 X55.837 Y57.308 E57.73672
G1 X55.405 Y56.693 E57.76175
G1 X54.873 Y56.161 E57.78681
G1 X54.258 Y55.729 E57.81185
G0 F2625 X54.032 Y55.624
G0 X54.286 Y55.081
G0 X54.756 Y54.869
;TYPE:SKIN
G1 F900 X53.916 Y54.477 E57.84272
G1 X53.023 Y54.239 E57.87351
G1 X52.1 Y54.157 E57.90438
G1 X51.177 Y54.239 E57.93524
G1 X50.284 Y54.477 E57.96603
G1 X49.444 Y54.869 E57.9969
G1 X48.688 Y55.401 E58.0277
G1 X48.035 Y56.054 E58.05846
G1 X47.503 Y56.81 E58.08925
G1 X47.111 Y57.65 E58.12013
G1 X46.873 Y58.544 E58.15095
G1 X46.796 Y59.411 E58.17994
G1 X46.796 Y95.589 E59.38504
G1 X46.873 Y96.456 E59.41404
G1 X47.111 Y97.35 E59.44485
G1 X47.503 Y98.19 E59.47573
G1 X48.035 Y98.946 E59.50652
G1 X48.688 Y99.599 E59.53728
G1 X49.444 Y100.131 E59.56808
G1 X50.284 Y100.523 E59.59895
G1 X51.177 Y100.761 E59.62974
G1 X52.1 Y100.843 E59.66061
G1 X53.023 Y100.761 E59.69147
G1 X53.916 Y100.523 E59.72226
G1 X54.756 Y100.131 E59.75313
G1 X55.512 Y99.599 E59.78393
G1 X56.165 Y98.946 E59.81469
G1 X56.697 Y98.19 E59.84548
G1 X57.089 Y97.35 E59.87636
G1 X57.327 Y96.456 E59.90718
G1 X57.404 Y95.589 E59.93617
G1 X57.404 Y59.411 E61.14127
G1 X57.327 Y58.544 E61.17027
G1 X57.089 Y57.65 E61.20108
G1 X56.697 Y56.81 E61.23196
G1 X56.165 Y56.054 E61.26275
G1 X55.512 Y55.401 E61.29351
G1 X54.756 Y54.869 E61.32431
G0 F2625 X40.64 Y53.34
G1 F900 X114.36 Y53.34 E63.77995
G1 X114.36 Y101.66 E65.3895
G1 X40.64 Y101.66 E67.84514
G1 X40.64 Y53.34 E69.4547
G0 F2625 X97.596 Y59.411
G1 F900 X97.596 Y95.589 E70.6598
G1 X97.673 Y96.456 E70.6888
G1 X97.911 Y97.35 E70.71961
G1 X98.303 Y98.19 E70.75049
G1 X98.835 Y98.946 E70.78128
G1 X99.488 Y99.599 E70.81204
G1 X100.244 Y100.131 E70.84284
G1 X101.084 Y100.523 E70.87371
G1 X101.977 Y100.761 E70.9045
G1 X102.9 Y100.843 E70.93537
G1 X103.823 Y100.761 E70.96623
G1 X104.716 Y100.523 E70.99702
G1 X105.556 Y100.131 E71.02789
G1 X106.312 Y99.599 E71.05869
G1 X106.965 Y98.946 E71.08945
G1 X107.497 Y98.19 E71.12024
G1 X107.889 Y97.35 E71.15112
G1 X108.127 Y96.456 E71.18194
G1 X108.204 Y95.589 E71.21093
G1 X108.204 Y59.411 E72.41603
G1 X108.127 Y58.544 E72.44503
G1 X107.889 Y57.65 E72.47584
G1 X107.497 Y56.81 E72.50672
G1 X106.965 Y56.054 E72.53751
G1 X106.312 Y55.401 E72.56827
G1 X105.556 Y54.869 E72.59907
G1 X104.716 Y54.477 E72.62994
G1 X103.823 Y54.239 E72.66073
G1 X102.9 Y54.157 E72.6916
G1 X101.977 Y54.239 E72.72246
G1 X101.084 Y54.477 E72.75325
G1 X100.244 Y54.869 E72.78412
G1 X99.488 Y55.401 E72.81492
G1 X98.835 Y56.054 E72.84568
G1 X98.303 Y56.81 E72.87647
G1 X97.911 Y57.65 E72.90735
G1 X97.673 Y58.544 E72.93817
G1 X97.596 Y59.411 E72.96716
G0 F2625 X98.694 Y57.037
G0 X99.181 Y56.345
G0 X99.779 Y55.747
G0 X100.471 Y55.26
G0 X101.239 Y54.902
G0 X102.057 Y54.684
G0 X114.134 Y54.03
G1 F900 X113.668 Y53.564 E72.98911
G0 F2625 X112.961 Y53.564
G1 F900 X114.134 Y54.737 E73.04437
G0 F2625 X114.134 Y55.444
G1 F900 X112.254 Y53.564 E73.13293
G0 F2625 X111.547 Y53.564
G1 F900 X114.134 Y56.152 E73.25482
G0 F2625 X114.134 Y56.859
G1 F900 X110.84 Y53.564 E73.41002
G0 F2625 X110.133 Y53.564
G1 F900 X114.134 Y57.566 E73.59852
G0 F2625 X114.134 Y58.273
G1 F900 X109.426 Y53.564 E73.82033
G0 F2625 X108.719 Y53.564
G1 F900 X114.134 Y58.98 E74.07545
G0 F2625 X114.134 Y59.687
G1 F900 X108.011 Y53.564 E74.36389
G0 F2625 X107.304 Y53.564
G1 F900 X114.134 Y60.394 E74.68563
G0 F2625 X114.134 Y61.101
G1 F900 X106.597 Y53.564 E75.04069
G0 F2625 X105.89 Y53.564
G1 F900 X114.134 Y61.808 E75.42905
G0 F2625 X114.134 Y62.516
G1 F900 X105.183 Y53.564 E75.85073
G0 F2625 X104.476 Y53.564
G1 F900 X105.513 Y54.601 E75.89958
G1 X105.601 Y54.689
